blockchains/ethereum/assets/0x9992eC3cF6A55b00978cdDF2b27BC6882d88D1eC/logo.svg

<svg fill="none" height="250" viewBox="0 0 250 250" width="250" xmlns="http://www.w3.org/2000/svg" xmlns:xlink="http://www.w3.org/1999/xlink"><clipPath id="a"><path d="m0 0h250v250h-250z"/></clipPath><g clip-path="url(#a)" clip-rule="evenodd" fill-rule="evenodd"><path d="m249.608 66.2845-.63-8.6951-2.314 6.8716-14.025 12.3411-16.091 2.2128-4.384-4.1056 13.463-19.1434 17.881-5.5393-19.003 1.192-22.583 15.9876-20.891-1.5425-29.873-15.6371-17.085 3.7013-55.0719 45.5062-25.8079 8.9279-11.1263 11.326h-19.1926l-10.1024 18.33-12.6962164 2.918 12.6962164 2.916 11.6045-16.109 17.6905 3.663v17.285l-8.3711 23.037-5.4897 23.756-5.6956 9.132 14.3147-2.975-1.6931-9.749 12.7438-25.534 22.4027-8.483 9.2872-15.035 15.1869-11.39 30.7333 5.49 29.185-13.787-4.235 20.595-13.612 1.2-3.723 17.895 11.93-8.207 18.856-8.526 15.132-22.957.721-11.431 8.021 8.135 23.702 14.774 14.094-6.219-1.613-31.3443-3.307-11.3272-8.122 2.4918 24.682-7.573z" fill="#4b5897"/><path d="m12.7719 138.02v5.834l-12.6962164-2.917z" fill="#313a62"/><path d="m22.8745 119.688 1.502 8.054-11.6045 16.11v-5.835z" fill="#4b5897"/><path d="m42.0668 131.405-19.1925-11.717 1.502 8.054z" fill="#3f4b80"/><path d="m42.0668 119.688v11.717l-19.1925-11.717z" fill="#313a62"/><path d="m42.0669 148.69v-29.002l16.9746 25.462z" fill="#3f4b80"/><path d="m33.6958 171.729 25.3458-26.577-16.9747 3.541z" fill="#313a62"/><path d="m28.2061 195.483 6.9259-3.592-1.4363-20.164z" fill="#1f243e"/><path d="m22.5105 204.615 12.6216-12.724-6.9259 3.592z" fill="#313a62"/><path d="m36.8252 201.64-1.6931-9.749-12.6216 12.724z" fill="#3f4b80"/><path d="m47.8764 166.359-12.7443 25.535-1.4363-20.165z" fill="#3f4b80"/><path d="m70.2786 157.877-11.237-12.725-25.3458 26.577z" fill="#4b5897"/><path d="m79.5658 142.84-9.2872 15.035-11.2371-12.725z" fill="#313a62"/><path d="m53.1932 108.363 5.8483 36.789-16.9746-25.462z" fill="#3f4b80"/><path d="m79.0011 99.4336-19.9596 45.7164-5.8484-36.789z" fill="#4b5897"/><path d="m79.5658 142.84-20.5243 2.31 19.9596-45.7164z" fill="#3f4b80"/><path d="m94.7528 131.45-15.1869 11.39-.5647-43.4064z" fill="#313a62"/><path d="m125.486 136.942-30.7333-5.49 30.7333-4.694z" fill="#3f4b80"/><path d="m79.0012 99.4336 46.4848 27.3224-30.7332 4.694z" fill="#4b5897"/><path d="m130.105 92.25-4.722 34.661-46.4843-27.3215z" fill="#3f4b80"/><path d="m134.073 53.9297-3.865 38.1672-51.2068 7.339z" fill="#4b5897"/><path d="m154.671 123.152-29.185 13.788-.103-10.031z" fill="#313a62"/><path d="m179.74 111.723-25.069 11.43-29.288 3.757z" fill="#3f4b80"/><path d="m179.019 123.153.721-11.43-25.069 11.43z" fill="#5161a4"/><path d="m163.887 146.109-9.216-22.957h24.348z" fill="#4b5897"/><path d="m150.436 143.748 13.451 2.361-9.215-22.957z" fill="#3f4b80"/><path d="m145.031 154.638 5.405-10.888 13.451 2.361z" fill="#4b5897"/><path d="m133.101 162.844 17.335-19.094-5.405 10.888z" fill="#313a62"/><path d="m136.824 144.95-3.723 17.894 17.335-19.094z" fill="#3f4b80"/><path d="m179.74 111.721-49.532-19.6272-4.825 34.8142z" fill="#4b5897"/><path d="m134.073 53.9297-3.865 38.1672 49.532 19.6271z" fill="#5161a4"/><path d="m151.158 50.2266-17.085 3.7013 45.667 57.7941z" fill="#4b5897"/><path d="m184.466 90.5464-4.726 21.1756-28.582-61.4954z" fill="#3f4b80"/><path d="m181.031 65.8637 3.435 24.6828-33.308-40.3199z" fill="#313a62"/><path d="m187.761 119.857-3.295-29.3101-4.726 21.1761z" fill="#313a62"/><path d="m212.514 88.2318-28.048 2.3142-3.435-24.6827z" fill="#4b5897"/><path d="m187.762 119.855 24.753-31.6245-28.049 2.3142z" fill="#3f4b80"/><path d="m211.463 134.629 1.052-46.3985-24.754 31.6245z" fill="#495692"/><path d="m212.164 74.9088-9.865 6.0652-21.268-15.1107z" fill="#3f4b80"/><path d="m201.922 67.4057 10.242 7.5031-31.133-9.0455z" fill="#313a62"/><path d="m225.627 55.7656-13.463 19.1434-10.242-7.5031z" fill="#3f4b80"/><path d="m224.505 51.418 1.122 4.3473-23.705 11.6402z" fill="#495692"/><path d="m243.508 50.2266-17.881 5.5393-1.122-4.3473z" fill="#5d6cac"/><path d="m216.581 79.0473-4.417-4.1371-9.865 6.0652z" fill="#313a62"/><path d="m237.197 80.6602-24.682 7.5729-10.216-7.2577z" fill="#4f60a3"/><path d="m232.639 76.8008 4.558 4.6222-34.898.3778z" fill="#495692"/><path d="m246.664 64.4609-9.467 16.1983-4.558-3.8572z" fill="#3f4b80"/><path d="m249.608 66.2844-2.944-1.8235-9.467 16.1983z" fill="#4f60a3"/><path d="m250.593 57.5898-3.929 6.8717 5 1.8235z" fill="#313a62"/><path d="m223.944 97.0693-11.429-8.8354 8.122-2.4917z" fill="#313a62"/><path d="m211.463 134.629 12.481-37.5631-11.429-8.8354z" fill="#3f4b80"/><path d="m225.557 128.411-14.094 6.219 12.481-37.5636z" fill="#313a62"/></g></svg>

<svg width="250" height="250" viewBox="0 0 250 250" fill="none" xmlns="http://www.w3.org/2000/svg">
<g clip-path="url(#clip0_31_865)">
<path fill-rule="evenodd" clip-rule="evenodd" d="M249.608 66.2845L248.978 57.5894L246.664 64.461L232.639 76.8021L216.548 79.0149L212.164 74.9093L225.627 55.7659L243.508 50.2266L224.505 51.4186L201.922 67.4062L181.031 65.8637L151.158 50.2266L134.073 53.9279L79.0011 99.4341L53.1932 108.362L42.0669 119.688H22.8743L12.7719 138.018L0.0756836 140.936L12.7719 143.852L24.3764 127.743L42.0669 131.406V148.691L33.6958 171.728L28.2061 195.484L22.5105 204.616L36.8252 201.641L35.1321 191.892L47.8759 166.358L70.2786 157.875L79.5658 142.84L94.7527 131.45L125.486 136.94L154.671 123.153L150.436 143.748L136.824 144.948L133.101 162.843L145.031 154.636L163.887 146.11L179.019 123.153L179.74 111.722L187.761 119.857L211.463 134.631L225.557 128.412L223.944 97.0677L220.637 85.7405L212.515 88.2323L237.197 80.6593L249.608 66.2845Z" fill="#4B5897"/>
<path fill-rule="evenodd" clip-rule="evenodd" d="M12.7719 138.02V143.854L0.0756836 140.937L12.7719 138.02Z" fill="#313A62"/>
<path fill-rule="evenodd" clip-rule="evenodd" d="M22.8745 119.688L24.3765 127.742L12.772 143.852V138.017L22.8745 119.688Z" fill="#4B5897"/>
<path fill-rule="evenodd" clip-rule="evenodd" d="M42.0668 131.405L22.8743 119.688L24.3763 127.742L42.0668 131.405Z" fill="#3F4B80"/>
<path fill-rule="evenodd" clip-rule="evenodd" d="M42.0668 119.688V131.405L22.8743 119.688H42.0668Z" fill="#313A62"/>
<path fill-rule="evenodd" clip-rule="evenodd" d="M42.0669 148.69V119.688L59.0415 145.15L42.0669 148.69Z" fill="#3F4B80"/>
<path fill-rule="evenodd" clip-rule="evenodd" d="M33.6958 171.729L59.0416 145.152L42.0669 148.693L33.6958 171.729Z" fill="#313A62"/>
<path fill-rule="evenodd" clip-rule="evenodd" d="M28.2061 195.483L35.132 191.891L33.6957 171.727L28.2061 195.483Z" fill="#1F243E"/>
<path fill-rule="evenodd" clip-rule="evenodd" d="M22.5105 204.615L35.1321 191.891L28.2062 195.483L22.5105 204.615Z" fill="#313A62"/>
<path fill-rule="evenodd" clip-rule="evenodd" d="M36.8252 201.64L35.1321 191.891L22.5105 204.615L36.8252 201.64Z" fill="#3F4B80"/>
<path fill-rule="evenodd" clip-rule="evenodd" d="M47.8764 166.359L35.1321 191.894L33.6958 171.729L47.8764 166.359Z" fill="#3F4B80"/>
<path fill-rule="evenodd" clip-rule="evenodd" d="M70.2786 157.877L59.0416 145.152L33.6958 171.729L70.2786 157.877Z" fill="#4B5897"/>
<path fill-rule="evenodd" clip-rule="evenodd" d="M79.5658 142.84L70.2786 157.875L59.0415 145.15L79.5658 142.84Z" fill="#313A62"/>
<path fill-rule="evenodd" clip-rule="evenodd" d="M53.1932 108.363L59.0415 145.152L42.0669 119.69L53.1932 108.363Z" fill="#3F4B80"/>
<path fill-rule="evenodd" clip-rule="evenodd" d="M79.0011 99.4336L59.0415 145.15L53.1931 108.361L79.0011 99.4336Z" fill="#4B5897"/>
<path fill-rule="evenodd" clip-rule="evenodd" d="M79.5658 142.84L59.0415 145.15L79.0011 99.4336L79.5658 142.84Z" fill="#3F4B80"/>
<path fill-rule="evenodd" clip-rule="evenodd" d="M94.7528 131.45L79.5659 142.84L79.0012 99.4336L94.7528 131.45Z" fill="#313A62"/>
<path fill-rule="evenodd" clip-rule="evenodd" d="M125.486 136.942L94.7527 131.452L125.486 126.758V136.942Z" fill="#3F4B80"/>
<path fill-rule="evenodd" clip-rule="evenodd" d="M79.0012 99.4336L125.486 126.756L94.7528 131.45L79.0012 99.4336Z" fill="#4B5897"/>
<path fill-rule="evenodd" clip-rule="evenodd" d="M130.105 92.25L125.383 126.911L78.8987 99.5895L130.105 92.25Z" fill="#3F4B80"/>
<path fill-rule="evenodd" clip-rule="evenodd" d="M134.073 53.9297L130.208 92.0969L79.0012 99.4359L134.073 53.9297Z" fill="#4B5897"/>
<path fill-rule="evenodd" clip-rule="evenodd" d="M154.671 123.152L125.486 136.94L125.383 126.909L154.671 123.152Z" fill="#313A62"/>
<path fill-rule="evenodd" clip-rule="evenodd" d="M179.74 111.723L154.671 123.153L125.383 126.91L179.74 111.723Z" fill="#3F4B80"/>
<path fill-rule="evenodd" clip-rule="evenodd" d="M179.019 123.153L179.74 111.723L154.671 123.153H179.019Z" fill="#5161A4"/>
<path fill-rule="evenodd" clip-rule="evenodd" d="M163.887 146.109L154.671 123.152H179.019L163.887 146.109Z" fill="#4B5897"/>
<path fill-rule="evenodd" clip-rule="evenodd" d="M150.436 143.748L163.887 146.109L154.672 123.152L150.436 143.748Z" fill="#3F4B80"/>
<path fill-rule="evenodd" clip-rule="evenodd" d="M145.031 154.638L150.436 143.75L163.887 146.111L145.031 154.638Z" fill="#4B5897"/>
<path fill-rule="evenodd" clip-rule="evenodd" d="M133.101 162.844L150.436 143.75L145.031 154.638L133.101 162.844Z" fill="#313A62"/>
<path fill-rule="evenodd" clip-rule="evenodd" d="M136.824 144.95L133.101 162.844L150.436 143.75L136.824 144.95Z" fill="#3F4B80"/>
<path fill-rule="evenodd" clip-rule="evenodd" d="M179.74 111.721L130.208 92.0938L125.383 126.908L179.74 111.721Z" fill="#4B5897"/>
<path fill-rule="evenodd" clip-rule="evenodd" d="M134.073 53.9297L130.208 92.0969L179.74 111.724L134.073 53.9297Z" fill="#5161A4"/>
<path fill-rule="evenodd" clip-rule="evenodd" d="M151.158 50.2266L134.073 53.9279L179.74 111.722L151.158 50.2266Z" fill="#4B5897"/>
<path fill-rule="evenodd" clip-rule="evenodd" d="M184.466 90.5464L179.74 111.722L151.158 50.2266L184.466 90.5464Z" fill="#3F4B80"/>
<path fill-rule="evenodd" clip-rule="evenodd" d="M181.031 65.8637L184.466 90.5465L151.158 50.2266L181.031 65.8637Z" fill="#313A62"/>
<path fill-rule="evenodd" clip-rule="evenodd" d="M187.761 119.857L184.466 90.5469L179.74 111.723L187.761 119.857Z" fill="#313A62"/>
<path fill-rule="evenodd" clip-rule="evenodd" d="M212.514 88.2318L184.466 90.546L181.031 65.8633L212.514 88.2318Z" fill="#4B5897"/>
<path fill-rule="evenodd" clip-rule="evenodd" d="M187.762 119.855L212.515 88.2305L184.466 90.5447L187.762 119.855Z" fill="#3F4B80"/>
<path fill-rule="evenodd" clip-rule="evenodd" d="M211.463 134.629L212.515 88.2305L187.761 119.855L211.463 134.629Z" fill="#495692"/>
<path fill-rule="evenodd" clip-rule="evenodd" d="M212.164 74.9088L202.299 80.974L181.031 65.8633L212.164 74.9088Z" fill="#3F4B80"/>
<path fill-rule="evenodd" clip-rule="evenodd" d="M201.922 67.4057L212.164 74.9088L181.031 65.8633L201.922 67.4057Z" fill="#313A62"/>
<path fill-rule="evenodd" clip-rule="evenodd" d="M225.627 55.7656L212.164 74.909L201.922 67.4059L225.627 55.7656Z" fill="#3F4B80"/>
<path fill-rule="evenodd" clip-rule="evenodd" d="M224.505 51.418L225.627 55.7653L201.922 67.4055L224.505 51.418Z" fill="#495692"/>
<path fill-rule="evenodd" clip-rule="evenodd" d="M243.508 50.2266L225.627 55.7659L224.505 51.4186L243.508 50.2266Z" fill="#5D6CAC"/>
<path fill-rule="evenodd" clip-rule="evenodd" d="M216.581 79.0473L212.164 74.9102L202.299 80.9754L216.581 79.0473Z" fill="#313A62"/>
<path fill-rule="evenodd" clip-rule="evenodd" d="M237.197 80.6602L212.515 88.2331L202.299 80.9754L237.197 80.6602Z" fill="#4F60A3"/>
<path fill-rule="evenodd" clip-rule="evenodd" d="M232.639 76.8008L237.197 81.423L202.299 81.8008L232.639 76.8008Z" fill="#495692"/>
<path fill-rule="evenodd" clip-rule="evenodd" d="M246.664 64.4609L237.197 80.6592L232.639 76.802L246.664 64.4609Z" fill="#3F4B80"/>
<path fill-rule="evenodd" clip-rule="evenodd" d="M249.608 66.2844L246.664 64.4609L237.197 80.6592L249.608 66.2844Z" fill="#4F60A3"/>
<path fill-rule="evenodd" clip-rule="evenodd" d="M250.593 57.5898L246.664 64.4615L251.664 66.285L250.593 57.5898Z" fill="#313A62"/>
<path fill-rule="evenodd" clip-rule="evenodd" d="M223.944 97.0693L212.515 88.2339L220.637 85.7422L223.944 97.0693Z" fill="#313A62"/>
<path fill-rule="evenodd" clip-rule="evenodd" d="M211.463 134.629L223.944 97.0659L212.515 88.2305L211.463 134.629Z" fill="#3F4B80"/>
<path fill-rule="evenodd" clip-rule="evenodd" d="M225.557 128.411L211.463 134.63L223.944 97.0664L225.557 128.411Z" fill="#313A62"/>
</g>
<defs>
<clipPath id="clip0_31_865">
<rect width="250" height="250" fill="white"/>
</clipPath>
</defs>
</svg>
